src/topics/icons/ampersand.svg

<svg height="298" preserveAspectRatio="xMidYMid" viewBox="0 0 256 298" width="256" xmlns="http://www.w3.org/2000/svg"><path d="m124.444298 131.966382 51.598855 62.420098 1.715563-1.715563c5.542588-5.938487 10.821243-11.876974 15.703999-17.815461 4.882756-5.938488 17.815462-19.531025 22.302319-25.733445l20.190856 36.950587c-3.431126 4.882756-8.049949 10.821243-13.592537 17.419562s-12.140907 14.25237-20.190856 22.698218l53.314418 65.851224h-53.97425l-28.636705-35.235024c-26.129344 27.185075-53.710317 40.777612-81.9511231 40.777612-25.4695117 0-46.9800319-8.049949-64.7954934-24.41378-17.41956232-16.363832-26.1293435-36.554688-26.1293435-60.572569 0-28.636705 13.5925373-52.654587 41.4374438-71.393813l18.8711926-12.932705c.3958991 0 .6598319-.395899 1.4516302-1.055731.6598319-.395899 1.4516302-1.055731 2.3753948-2.111462-18.8711925-20.190857-28.6367048-40.1177803-28.6367048-59.6488048 0-19.5310244 6.3343863-35.2350238 18.8711926-47.3759309 12.9327054-12.14090713 29.5604695-18.0793943 50.1472248-18.0793943 19.926924 0 35.894856 5.93848717 48.827561 17.8154615 12.932706 11.8769743 19.531025 26.7891755 19.531025 44.604637 0 12.5368062-3.431126 23.7539486-10.425344 33.7833936-7.390118 9.6335459-19.926924 21.9064189-38.006318 35.7628899zm-34.4432258 24.41378-2.3753949 1.715563c-17.8154615 12.140907-29.9563686 22.302319-36.2907549 29.56047s-9.3696131 15.3081-9.3696131 23.753948c0 11.876975 4.8827561 22.962151 14.2523692 32.727663 9.7655123 9.369613 20.8506883 14.252369 32.7276627 14.252369 16.7597308 0 35.8948558-10.821243 57.8012748-32.727663zm9.3696131-54.634082 3.4311257-2.7712939c5.938487-4.4868569 11.217143-8.7097811 15.044168-11.8769743 3.827025-3.4311259 6.994218-6.3343863 8.709781-8.7097812 3.827025-4.4868569 5.542588-10.1614113 5.542588-17.0236632 0-7.6540501-2.375395-13.5925373-7.65405-18.4752934s-11.876975-6.9942182-20.586756-6.9942182c-7.6540499 0-14.2523689 2.3753948-19.9269233 7.258151-5.2786553 4.4868569-8.0499493 10.4253441-8.0499493 17.8154615 0 8.313882 3.4311259 16.7597304 10.1614114 25.0736125l10.8212432 12.9327053c.3958992.2639328 1.0557311 1.3196639 2.5073613 2.7712939z" fill="#e7168e"/><path d="m87.5260299 2.10763815c-11.4810752 5.93848716-10.029445 5.54258802-17.9474279 15.83596575-41.8333429 55.0299811-.9237647 92.6404001 16.0998986 112.8312561-5.4106217 3.695059-10.8212433 7.390118-16.231865 11.085176-10.029445 6.862252-20.1908563 13.724504-28.6367048 22.434285-8.5778148 8.709781-15.4400666 19.267092-17.8154615 31.144066-1.9794957 9.897479-1.1876974 20.322823 1.4516302 29.956369 15.0441675 55.953745 62.8159976 53.182451 78.2560645 64.399594-4.75079 8.313882-15.7039996 2.507361-25.2055791 4.222924s-11.7450079-1.055731-20.9826547-3.827025c-27.5809737-8.313882-47.50789731-27.976873-53.84228362-56.085712-9.63354585-42.097276 11.34910882-65.851225 11.34910882-65.851225s4.6188233-9.501579 21.7744529-23.621982c1.0557311-.923764 27.7129402-17.947428 28.1088393-19.267092.6598319-1.715562-13.0646718-14.516301-15.572033-20.190856-3.2991595-7.3901172-13.0646718-20.9826545-13.0646718-38.0063178.1319664-24.8096797 9.6335459-56.3496449 51.5988552-65.98319073zm3.0352268 155.45639785c3.827025-3.563093 5.4106216-4.882757 10.1614113-7.258151 19.399058 21.774453 35.894856 42.361208 54.106216 66.247123-4.486856 3.167193-8.181915 9.10568-8.181915 9.10568zm33.2555283 128.271322c18.21136-10.293377 33.91536-25.205578 45.264469-42.757107.659832-1.055731 1.583596-2.375395 2.90326-2.507361 1.319664-.131967 2.507361 1.055731 3.431126 1.979495 13.064672 15.044168 20.982655 25.601478 31.935864 42.361209-5.410621 3.035227-2.639327 2.771294-8.841747 2.375395-3.035227-.131967-24.545747-31.276033-26.129344-29.956369-8.709781 7.917983-29.428503 32.331764-48.827561 28.636705zm106.760802-109.532096c-10.821243 12.800739-21.114621 25.469511-31.539965 38.66615-.395899.527865-.923764 1.187697-1.055731 1.979495-.131966 1.187698 2.903261 6.994218 4.486857 8.841748 8.181916-8.841748 16.759731-17.947428 23.490016-26.657209 3.167193-3.958992 9.369613-12.800739 10.029445-13.196638-.395899-.263933-5.146689-9.369613-5.410622-9.633546zm-132.4942466-75.088871c4.0909576 4.486857 8.1819156 8.841747 12.2728736 13.328604 15.176134-8.841747 26.26131-24.5457468 29.560469-41.8333427.791799-3.9589915 1.055731-8.1819157.527866-12.1409071-1.583597-11.3491088-11.349109-20.4547892-22.566251-22.1703521 6.730285 3.6950586 10.953209 8.1819156 13.196638 14.5163019 2.375395 6.3343863 1.583596 13.9884365-1.45163 20.05889-1.715563 3.5630923-4.354891 6.4663527-6.994219 9.5015795-6.730285 7.3901174-13.85647 11.8769743-22.8301836 19.3990585z" fill-opacity=".1"/></svg>

<?xml version="1.0" encoding="UTF-8" standalone="no"?>
<svg width="256px" height="298px" viewBox="0 0 256 298" version="1.1" xmlns="http://www.w3.org/2000/svg" xmlns:xlink="http://www.w3.org/1999/xlink" preserveAspectRatio="xMidYMid">
	<g>
		<path d="M124.444298,131.966382 L176.043153,194.38648 L177.758716,192.670917 C183.301304,186.73243 188.579959,180.793943 193.462715,174.855456 C198.345471,168.916968 211.278177,155.324431 215.765034,149.122011 L235.95589,186.072598 C232.524764,190.955354 227.905941,196.893841 222.363353,203.49216 C216.820765,210.090479 210.222446,217.74453 202.172497,226.190378 L255.486915,292.041602 L201.512665,292.041602 L172.87596,256.806578 C146.746616,283.991653 119.165643,297.58419 90.9248369,297.58419 C65.4553252,297.58419 43.944805,289.534241 26.1293435,273.17041 C8.70978118,256.806578 -1.42108547e-14,236.615722 -1.42108547e-14,212.597841 C-1.42108547e-14,183.961136 13.5925373,159.943254 41.4374438,141.204028 L60.3086364,128.271323 C60.7045355,128.271323 60.9684683,127.875424 61.7602666,127.215592 C62.4200985,126.819693 63.2118968,126.159861 64.1356614,125.10413 C45.2644689,104.913273 35.4989566,84.9863497 35.4989566,65.4553252 C35.4989566,45.9243008 41.8333429,30.2203014 54.3701492,18.0793943 C67.3028546,5.93848717 83.9306187,2.84217094e-14 104.517374,2.84217094e-14 C124.444298,2.84217094e-14 140.41223,5.93848717 153.344935,17.8154615 C166.277641,29.6924358 172.87596,44.604637 172.87596,62.4200985 C172.87596,74.9569047 169.444834,86.1740471 162.450616,96.2034921 C155.060498,105.837038 142.523692,118.109911 124.444298,131.966382 L124.444298,131.966382 Z M90.0010722,156.380162 L87.6256773,158.095725 C69.8102158,170.236632 57.6693087,180.398044 51.3349224,187.656195 C45.0005361,194.914346 41.9653093,202.964295 41.9653093,211.410143 C41.9653093,223.287118 46.8480654,234.372294 56.2176785,244.137806 C65.9831908,253.507419 77.0683668,258.390175 88.9453412,258.390175 C105.705072,258.390175 124.840197,247.568932 146.746616,225.662512 L90.0010722,156.380162 L90.0010722,156.380162 Z M99.3706853,101.74608 L102.801811,98.9747861 C108.740298,94.4879292 114.018954,90.265005 117.845979,87.0978118 C121.673004,83.6666859 124.840197,80.7634255 126.55576,78.3880306 C130.382785,73.9011737 132.098348,68.2266193 132.098348,61.3643674 C132.098348,53.7103173 129.722953,47.7718301 124.444298,42.889074 C119.165643,38.0063179 112.567323,35.8948558 103.857542,35.8948558 C96.2034921,35.8948558 89.6051731,38.2702506 83.9306187,43.1530068 C78.6519634,47.6398637 75.8806694,53.5783509 75.8806694,60.9684683 C75.8806694,69.2823503 79.3117953,77.7281987 86.0420808,86.0420808 L96.863324,98.9747861 C97.2592232,99.2387189 97.9190551,100.29445 99.3706853,101.74608 L99.3706853,101.74608 Z" fill="#E7168E"></path>
		<path d="M87.5260299,2.10763815 C76.0449547,8.04612531 77.4965849,7.65022617 69.578602,17.9436039 C27.7452591,72.973585 68.6548373,110.584004 85.6785006,130.77486 C80.2678789,134.469919 74.8572573,138.164978 69.4466356,141.860036 C59.4171906,148.722288 49.2557793,155.58454 40.8099308,164.294321 C32.232116,173.004102 25.3698642,183.561413 22.9944693,195.438387 C21.0149736,205.335866 21.8067719,215.76121 24.4460995,225.394756 C39.490267,281.348501 87.2620971,278.577207 102.702164,289.79435 C97.951374,298.108232 86.9981644,292.301711 77.4965849,294.017274 C67.9950054,295.732837 65.751577,292.961543 56.5139302,290.190249 C28.9329565,281.876367 9.00603289,262.213376 2.67164658,234.104537 C-6.96189927,192.007261 14.0207554,168.253312 14.0207554,168.253312 C14.0207554,168.253312 18.6395787,158.751733 35.7952083,144.63133 C36.8509394,143.707566 63.5081485,126.683902 63.9040476,125.364238 C64.5638795,123.648676 50.8393758,110.847937 48.3320146,105.173382 C45.0328551,97.7832648 35.2673428,84.1907275 35.2673428,67.1670642 C35.3993092,42.3573845 44.9008887,10.8174193 86.866198,1.18387347 L87.5260299,2.10763815 Z M90.5612567,157.564036 C94.3882817,154.000943 95.9718783,152.681279 100.722668,150.305885 C120.121726,172.080338 136.617524,192.667093 154.828884,216.553008 C150.342028,219.720201 146.646969,225.658688 146.646969,225.658688 L90.5612567,157.564036 Z M123.816785,285.835358 C142.028145,275.541981 157.732145,260.62978 169.081254,243.078251 C169.741086,242.02252 170.66485,240.702856 171.984514,240.57089 C173.304178,240.438923 174.491875,241.626621 175.41564,242.550385 C188.480312,257.594553 196.398295,268.151863 207.351504,284.911594 C201.940883,287.946821 204.712177,287.682888 198.509757,287.286989 C195.47453,287.155022 173.96401,256.010956 172.380413,257.33062 C163.670632,265.248603 142.95191,289.662384 123.552852,285.967325 L123.816785,285.835358 Z M230.577587,176.303262 C219.756344,189.104001 209.462966,201.772773 199.037622,214.969412 C198.641723,215.497277 198.113858,216.157109 197.981891,216.948907 C197.849925,218.136605 200.885152,223.943125 202.468748,225.790655 C210.650664,216.948907 219.228479,207.843227 225.958764,199.133446 C229.125957,195.174454 235.328377,186.332707 235.988209,185.936808 C235.59231,185.672875 230.84152,176.567195 230.577587,176.303262 Z M98.0833404,101.214391 C102.174298,105.701248 106.265256,110.056138 110.356214,114.542995 C125.532348,105.701248 136.617524,89.9972482 139.916683,72.7096523 C140.708482,68.7506608 140.972414,64.5277366 140.444549,60.5687452 C138.860952,49.2196364 129.09544,40.113956 117.878298,38.3983931 C124.608583,42.0934517 128.831507,46.5803087 131.074936,52.914695 C133.450331,59.2490813 132.658532,66.9031315 129.623306,72.973585 C127.907743,76.5366773 125.268415,79.4399377 122.629087,82.4751645 C115.898802,89.8652819 108.772617,94.3521388 99.7989034,101.874223 L98.0833404,101.214391 Z" fill-opacity="0.1" fill="#000000"></path>
	</g>
</svg>
